!! 00000] TT[WS
!!!OTL: Da honghua
!!!ARE: Asia, China, Shanxi Yuncheng
!! Ethnic Group: Han
!! WII, 259 (2)
!!!SCT: J0787
!!!YEM: Copyright 1995, estate of Helmut Schaffrath.
**kern
*ICvox
*Ivox
*M2/4
*k[f#c#]
*D:
{8.dd
16ff#
8.ee
16ff#
=1
8.dd
16ff#
8.ee
16ff#
=2
4dd
8ee
8dd
=3
8cc#
8b
4a}
=4
{8f#
8a
8ff#
16ee
16dd
=5
8b
8dd
8b
8a
=6
8b
8dd
8b
8a
=7
8f#
8a
16b
16a
16f#
16e
=8
2d}
==
!!!AGN: Xiaodiao. XÅshi, Xinminge
!!!ONB: ESAC (Essen Associative Code) Database: CHINA
!!!AMT: simple duple
!!!AIN: vox
!!!EED: Helmut Schaffrath
!!!EEV: 1.0
*-
